X:849
T:Sleepy Maggy
R:Reel
S:McGlashan - Reels (pg. 35)
M:C|
L:1/8
K:D
e|f2 de fBde|f2 df eAce|f2 de fBde|f^gaf eAce|f2 Bb fBde|f2 Bb eAce|
f2 Bb fBde|f/e/f/^g/ af eA c||e|fBdB fBde|fBdB eAce|fBdB fBde|
f^gaf eAce|fB d/B/A/B/ fBde|fB d/B/A/B/ eAce|fB d/B/A/B/ fBde|
f/e/f/^g/ af eA c||e|f2 Bb Bfde|f2 db aAce|f2 Bb Bfde|fbaf eAce|
f2 Bb bbde|f2 Bb bbde|f2 Bb bbde|f/e/f/^g/ f/g/a/f/ eA c||e|fBbB fBde|
fBbB aAce|fBbB fBde|fbaf eAce|fBbB fBde|fBbB aAce|gBbB aB^gB|
fB^gB aAce||

